icons/nuget/nuget-original-watermark.svg

<?xml version="1.0" encoding="UTF-8"?>
<svg xmlns="http://www.w3.org/2000/svg" xmlns:xlink="http://www.w3.org/1999/xlink" width="128px" height="39px" viewBox="0 0 128 39" version="1.1">
<g id="surface1">
<path style=" stroke:none;fill-rule:nonzero;fill:rgb(0%,0%,0%);fill-opacity:1;" d="M 0.722656 1.5 C 0.0585938 2.277344 -0.0273438 2.625 0.0859375 3.546875 C 0.289062 5.019531 1.039062 5.769531 2.507812 5.972656 C 3.429688 6.085938 3.777344 6 4.554688 5.335938 C 5.332031 4.671875 5.476562 4.382812 5.476562 3.289062 C 5.476562 1.5 4.554688 0.578125 2.765625 0.578125 C 1.671875 0.578125 1.382812 0.722656 0.722656 1.5 Z M 0.722656 1.5 "/>
<path style=" stroke:none;fill-rule:nonzero;fill:rgb(0%,0%,0%);fill-opacity:1;" d="M 12.683594 7.125 C 10.867188 7.789062 8.332031 10.382812 7.699219 12.230469 C 7.003906 14.25 6.976562 25.789062 7.667969 27.777344 C 8.246094 29.507812 10.089844 31.558594 11.933594 32.539062 L 13.40625 33.316406 L 27.820312 33.316406 L 29.261719 32.539062 C 30.992188 31.644531 32.257812 30.316406 33.183594 28.558594 C 33.84375 27.289062 33.875 27.058594 33.875 20.046875 L 33.875 12.835938 L 33.09375 11.394531 C 32.117188 9.519531 30.789062 8.277344 28.828125 7.382812 C 27.273438 6.664062 27.128906 6.632812 20.613281 6.664062 C 15.335938 6.664062 13.722656 6.777344 12.683594 7.125 Z M 16.085938 11.480469 C 17.730469 13.007812 17.671875 15.230469 15.972656 16.703125 C 13.375 18.980469 9.484375 16.5 10.40625 13.125 C 11.070312 10.730469 14.269531 9.808594 16.085938 11.480469 Z M 27.703125 19.992188 C 31.625 22.066406 31.625 27.835938 27.703125 29.914062 C 24.417969 31.644531 20.527344 29.855469 19.605469 26.222656 C 18.449219 21.605469 23.464844 17.769531 27.703125 19.992188 Z M 27.703125 19.992188 "/>
<path style=" stroke:none;fill-rule:nonzero;fill:rgb(0%,0%,0%);fill-opacity:1;" d="M 122.609375 8.972656 C 122.003906 9.203125 121.945312 9.402344 121.945312 11.394531 L 121.945312 13.558594 L 120.359375 13.558594 C 118.859375 13.558594 118.773438 13.585938 118.773438 14.277344 C 118.773438 14.972656 118.859375 15 120.359375 15 L 121.945312 15 L 121.945312 21.492188 C 121.945312 28.472656 122.117188 29.480469 123.417969 30.402344 C 124.195312 30.921875 126.585938 31.039062 127.453125 30.578125 C 127.742188 30.402344 128 30 128 29.683594 C 128 29.164062 127.882812 29.105469 127.222656 29.308594 C 125.894531 29.683594 124.800781 29.539062 124.164062 28.875 C 123.558594 28.269531 123.53125 27.980469 123.445312 21.632812 L 123.359375 15 L 125.664062 15 C 127.972656 15 128 15 128 14.277344 C 128 13.558594 127.972656 13.558594 125.695312 13.558594 L 123.417969 13.558594 L 123.328125 11.132812 C 123.242188 8.769531 123.242188 8.742188 122.609375 8.972656 Z M 122.609375 8.972656 "/>
<path style=" stroke:none;fill-rule:nonzero;fill:rgb(0%,0%,0%);fill-opacity:1;" d="M 53.1875 13.789062 C 52.554688 14.078125 51.605469 14.796875 51.085938 15.402344 L 50.164062 16.472656 L 50.164062 15 C 50.164062 13.585938 50.132812 13.558594 49.296875 13.558594 L 48.433594 13.558594 L 48.433594 30.578125 L 50.164062 30.578125 L 50.164062 24.867188 C 50.164062 19.847656 50.25 19.039062 50.738281 18.027344 C 51.863281 15.632812 53.277344 14.710938 55.699219 14.710938 C 57.140625 14.710938 57.484375 14.828125 58.347656 15.605469 C 58.925781 16.097656 59.503906 16.960938 59.675781 17.539062 C 59.820312 18.117188 59.964844 21.289062 59.964844 24.578125 L 59.964844 30.578125 L 61.695312 30.578125 L 61.695312 24.953125 C 61.695312 17.480469 61.261719 15.691406 59.011719 14.019531 C 57.886719 13.183594 54.773438 13.066406 53.1875 13.789062 Z M 53.1875 13.789062 "/>
<path style=" stroke:none;fill-rule:nonzero;fill:rgb(0%,0%,0%);fill-opacity:1;" d="M 88.820312 13.671875 C 85.277344 14.941406 83.054688 19.757812 83.890625 24.433594 C 84.265625 26.597656 84.757812 27.75 85.882812 28.933594 C 87.09375 30.289062 88.707031 30.953125 90.667969 30.980469 C 92.945312 30.980469 94.386719 30.460938 95.742188 29.105469 L 96.863281 27.980469 L 96.863281 30.230469 C 96.863281 34.789062 94.5 37.210938 90.0625 37.210938 C 88.648438 37.210938 86.054688 36.546875 85.476562 36.027344 C 85.015625 35.566406 84.757812 35.742188 84.757812 36.519531 C 84.757812 37.703125 86.832031 38.480469 90.089844 38.507812 C 93.058594 38.507812 94.441406 38.105469 95.882812 36.835938 C 98.25 34.789062 98.59375 32.914062 98.59375 22.007812 L 98.59375 13.558594 L 97.730469 13.558594 C 96.894531 13.558594 96.863281 13.617188 96.863281 14.769531 L 96.863281 15.980469 L 95.941406 15 C 95.421875 14.480469 94.585938 13.875 94.070312 13.671875 C 92.945312 13.183594 90.148438 13.183594 88.820312 13.671875 Z M 93.78125 15.027344 C 94.703125 15.519531 96 16.757812 96.460938 17.652344 C 96.75 18.203125 96.863281 19.472656 96.863281 21.921875 C 96.863281 24.867188 96.777344 25.585938 96.289062 26.566406 C 94.703125 29.683594 90.234375 30.664062 87.753906 28.472656 C 86.253906 27.171875 85.5625 25.585938 85.390625 23.191406 C 85.160156 19.472656 86.371094 16.527344 88.707031 15.316406 C 89.945312 14.652344 92.769531 14.507812 93.78125 15.027344 Z M 93.78125 15.027344 "/>
<path style=" stroke:none;fill-rule:nonzero;fill:rgb(0%,0%,0%);fill-opacity:1;" d="M 107.703125 13.703125 C 106.320312 14.191406 104.535156 15.894531 103.753906 17.480469 C 101.824219 21.492188 102.890625 27.578125 105.886719 29.742188 C 108.078125 31.328125 111.652344 31.441406 114.652344 29.972656 C 115.691406 29.480469 115.890625 29.222656 115.890625 28.558594 L 115.890625 27.722656 L 114.25 28.585938 C 111.078125 30.203125 108.253906 29.972656 106.320312 27.953125 C 105.226562 26.796875 104.359375 24.605469 104.359375 23.019531 L 104.359375 22.210938 L 117.101562 22.210938 L 116.902344 20.394531 C 116.351562 15.605469 114.191406 13.242188 110.355469 13.269531 C 109.519531 13.296875 108.339844 13.472656 107.703125 13.703125 Z M 113.585938 16.066406 C 114.652344 17.191406 115.316406 18.75 115.316406 20.105469 L 115.316406 20.769531 L 104.359375 20.769531 L 104.535156 19.960938 C 105.082031 17.625 106.320312 15.867188 107.964844 15.117188 C 108.511719 14.855469 109.519531 14.742188 110.675781 14.796875 C 112.402344 14.882812 112.578125 14.972656 113.585938 16.066406 Z M 113.585938 16.066406 "/>
<path style=" stroke:none;fill-rule:nonzero;fill:rgb(0%,0%,0%);fill-opacity:1;" d="M 66.363281 19.960938 C 66.449219 25.242188 66.566406 26.597656 67 27.546875 C 68.035156 29.972656 69.621094 30.980469 72.359375 30.980469 C 74.523438 30.980469 75.589844 30.519531 76.945312 28.992188 L 77.835938 27.953125 L 77.835938 29.277344 C 77.835938 30.519531 77.867188 30.578125 78.703125 30.578125 L 79.566406 30.578125 L 79.566406 13.558594 L 77.835938 13.558594 L 77.835938 19.527344 C 77.835938 25.007812 77.78125 25.585938 77.234375 26.769531 C 75.761719 29.796875 71.554688 30.632812 69.417969 28.328125 C 68.210938 27.027344 68.035156 25.992188 68.035156 19.585938 L 68.035156 13.558594 L 66.25 13.558594 Z M 66.363281 19.960938 "/>
</g>
</svg>

<svg xmlns="http://www.w3.org/2000/svg" viewBox="0 0 128 128" version="1.1"><g stroke="none" fill-rule="nonzero" fill="#004880" fill-opacity="1"><path d="M.723 1.5c-.664.777-.75 1.125-.637 2.047.203 1.473.953 2.223 2.422 2.426.922.113 1.27.027 2.047-.637.777-.664.922-.953.922-2.047C5.477 1.5 4.555.58 2.766.58 1.672.578 1.383.722.723 1.5zm0 0M12.684 7.125c-1.817.664-4.352 3.258-4.985 5.105-.695 2.02-.722 13.56-.031 15.547.578 1.73 2.422 3.782 4.266 4.762l1.472.777H27.82l1.442-.777c1.73-.894 2.996-2.223 3.922-3.98.66-1.27.691-1.5.691-8.512v-7.211l-.781-1.441c-.977-1.875-2.305-3.118-4.266-4.012-1.555-.719-1.7-.75-8.215-.719-5.277 0-6.89.113-7.93.461zm3.402 4.355c1.644 1.528 1.586 3.75-.113 5.223-2.598 2.277-6.489-.203-5.567-3.578.664-2.395 3.864-3.316 5.68-1.645zm11.617 8.512c3.922 2.074 3.922 7.844 0 9.922-3.285 1.73-7.176-.059-8.098-3.691-1.156-4.618 3.86-8.453 8.098-6.23zm0 0M122.61 8.973c-.606.23-.665.43-.665 2.422v2.164h-1.586c-1.5 0-1.586.027-1.586.718 0 .696.086.723 1.586.723h1.586v6.492c0 6.98.172 7.988 1.473 8.91.777.52 3.168.637 4.035.176.29-.176.547-.578.547-.894 0-.52-.117-.579-.777-.375-1.328.375-2.422.23-3.059-.434-.605-.605-.633-.895-.719-7.242L123.36 15h2.305c2.309 0 2.336 0 2.336-.723 0-.718-.027-.718-2.305-.718h-2.277l-.09-2.426c-.086-2.363-.086-2.39-.719-2.16zm0 0M53.188 13.79c-.633.288-1.583 1.007-2.102 1.612l-.922 1.07V15c0-1.414-.031-1.441-.867-1.441h-.863v17.02h1.73v-5.712c0-5.02.086-5.828.574-6.84 1.125-2.394 2.54-3.316 4.961-3.316 1.442 0 1.785.117 2.649.894.578.493 1.156 1.356 1.328 1.934.144.578.289 3.75.289 7.04v6h1.73v-5.626c0-7.473-.433-9.262-2.683-10.933-1.125-.836-4.239-.954-5.825-.23zm0 0M88.82 13.672c-3.543 1.27-5.765 6.086-4.93 10.762.376 2.164.868 3.316 1.993 4.5 1.21 1.355 2.824 2.02 4.785 2.046 2.277 0 3.719-.52 5.074-1.875l1.121-1.125v2.25c0 4.56-2.363 6.98-6.8 6.98-1.415 0-4.008-.663-4.586-1.183-.461-.46-.72-.285-.72.493 0 1.183 2.075 1.96 5.333 1.988 2.969 0 4.351-.403 5.793-1.672 2.367-2.047 2.71-3.922 2.71-14.828v-8.45h-.863c-.835 0-.867.06-.867 1.212v1.21l-.922-.98c-.52-.52-1.355-1.125-1.87-1.328-1.126-.488-3.923-.488-5.25 0zm4.961 1.355c.922.493 2.219 1.73 2.68 2.625.289.551.402 1.82.402 4.27 0 2.945-.086 3.664-.574 4.644-1.586 3.118-6.055 4.098-8.535 1.907-1.5-1.301-2.192-2.887-2.363-5.282-.23-3.718.98-6.664 3.316-7.875 1.238-.664 4.063-.808 5.074-.289zm0 0M107.703 13.703c-1.383.488-3.168 2.192-3.95 3.777-1.929 4.012-.862 10.098 2.134 12.262 2.191 1.586 5.765 1.7 8.765.23 1.04-.492 1.239-.75 1.239-1.413v-.836l-1.641.863c-3.172 1.617-5.996 1.387-7.93-.633-1.093-1.156-1.96-3.348-1.96-4.933v-.81h12.742l-.2-1.815c-.55-4.79-2.71-7.153-6.547-7.125-.835.027-2.015.203-2.652.433zm5.883 2.363c1.066 1.125 1.73 2.684 1.73 4.04v.664H104.36l.176-.81c.547-2.335 1.785-4.093 3.43-4.843.547-.262 1.555-.375 2.71-.32 1.727.086 1.903.176 2.91 1.27zm0 0M66.363 19.96c.086 5.282.203 6.638.637 7.587 1.035 2.426 2.621 3.433 5.36 3.433 2.163 0 3.23-.46 4.585-1.988l.89-1.039v1.324c0 1.243.032 1.301.868 1.301h.863v-17.02h-1.73v5.97c0 5.48-.055 6.058-.602 7.242-1.472 3.027-5.68 3.863-7.816 1.558-1.207-1.3-1.383-2.336-1.383-8.742v-6.027H66.25zm0 0"/></g></svg>
